X:1
T:All in the Silent Night
T: Isaac Hickman Meredith
T:All in the Silent Night
T:Public Domain
T:Public Domain
T:Public Domain
C:Isaac Hickman Meredith
Z:Public Domain
%%score ( 1 2 ) ( 3 4 )
L:1/8
M:6/8
K:Bb
V:1 treble 
V:2 treble 
V:3 bass 
V:4 bass 
V:1
 F=E[DF] [Dd]2 [DFd] | ([EF]2 [EF] [EF]2 [EF]) | FE[EF] [Ec]2 [Ec] | (D2 D D2 D) | %4
w: 1.~All in the si- lent|Num- * * *|less an- gels bright Came|their * * *|
w: 2.~Join in the song so|Now * * *|the shep- herds meet, Haste|the * * *|
w: 3.~Brok- en the shades of|Hail * * *|the Day- spring bright! Spread-|the * * *|
 F=E[DF] [DB]2 [DB] | (E2 E E2 E) | FA[Fc] [Fe]2 [Fe] | (F2 F [DF]2 [DF]) | F=E[DF] [Fd]2 [Fd] | %9
w: of light Throng- ing the|blue * * *|Beau- ti- ful songs they|Won- * * *|ful e- choes rang; Glo-|
w: ior’s feet, Wor- ship the|di- * * *|Come with the men of|Nor * * *|the heart with- hold Aught|
w: èd light, Tell of a|ior * * *|Till all man- kind shall|Mer- * * *|so great and free, Till|
 (=E2 E E2 E) | F=E[_EF] [Ec]2 [Ec] | (D2 D D2 D) | [GB][FA][EG] ([GB][FA])[EG] | %13
w: to * * *|our King, Glo- ry to|on * * *||
w: its * * *|est gold; All to the|re- * * *|Glo- ry, glo- ry * to|
w: this * * *|shall be Dawn of e-|nal * * *||
 (D2 D [DF]2 [DF]) | cG[_Ed] (cF)[Ec] | (D2 E D3) |:"^Refrain" ([DF]2 [DF]) (D2 D) | %17
w: ||||
w: God! * * *|glo- ry to God, * Glo-|glo- * *|to * God *|
w: ||||
"^Echo" FBd f3 | ([EG]2 [EG]) (E2 E) | Gce g3 | AA[EA] AG[EF] | [Ec]2 [Ec] [Ec]3 | GG[DG] GF[DB] | %23
w: ||||||
w: Let ev- ery list-|en- * ing *|ply; Far let the|joy- ful tid- ings fly; All|to God on|high! * * * * *|
w: ||||||
 [DFd]2 [DFd] ([DF]2 [DF]) :| AA[EA] (AG)[EF] | [Ec]2 [Ec] [Ec]2 [Fe] | [Fd][DF][Fd] (cF)[Ec] | %27
w: ||||
w: ||||
w: ||||
 (D2 E [DB]2) z |] %28
w: |
w: |
w: |
V:2
 D2 x4 | c6 | E2 x4 | B6 | D2 x4 | A6 | F2 x4 | d6 | D2 x4 | c6 | E2 x4 | B6 | x6 | F3 d3 | %14
w: night,|ber-|on|wings|deep|sky;|sang,|der-|ry|Christ|God|high.|||
w: sweet,|with|to|Sav-|Child|vine;|old,|let|of|pur-|King|sign.||Glo- ry,|
w: night;|to|ing|bless-|Sav-|born,|see|cy,|on|earth|ter-|morn.|||
 =E2 _E2 x2 | B6 |: d3 F3 | x6 | e3 G3 | x6 | E2 E2 x2 | x6 | D2 D2 x2 | x d3 x2 :| E2 E2 x2 | x6 | %26
w: ||||||||||||
w: ry, all|ry|on high!||heart re-||glo- ry||||||
w: ||||||||||||
 x3 E2 x | B3- x3 |] %28
w: ||
w: ||
w: ||
V:3
 [B,,F,B,]2 [B,,F,B,] [B,,F,B,]2 [B,,F,B,] | ([F,A,]2 [F,A,] [F,A,]2 [F,A,]) | %2
 [F,A,]2 [F,A,] [F,A,]2 [F,A,] | ([B,,F,B,]2 [B,,F,B,] [B,,F,B,]2 [B,,F,B,]) | %4
 [B,,F,]2 [B,,F,] [B,,F,]2 [B,,F,] | ([C,F,]2 [C,F,] [C,F,]2 [C,F,]) | %6
 [F,A,]2 [F,A,] [F,A,][G,B,][A,C] | (B,2 B, [B,,F,B,]2 [B,,F,B,]) | %8
 [B,,F,B,]2 [B,,F,B,] [G,=B,]2 [G,B,] | ([C,G,B,]2 [C,G,B,] [C,G,B,]2 [C,G,B,]) | %10
 [F,A,]2 [F,A,] [F,A,]2 [^F,A,] | ([G,B,]2 [G,B,] [G,B,]2 [G,B,]) | [E,B,]2 [E,B,] [E,B,]2 [E,B,] | %13
 ([B,,B,]2 [B,,B,] [B,,B,]2 [B,,B,]) | [C,B,]2 [C,B,] [F,A,]2 [F,A,] | %15
 ([B,,B,]2 [B,,G,] [B,,F,]3) |: ([B,,F,B,]2 [B,,F,B,]) ([B,,F,B,]2 [B,,F,B,]) | %17
 [F,B,D]2 [F,B,D] ([F,B,D]2 [F,B,D]) | ([C,G,C]2 [C,G,C]) ([C,G,C]2 [C,G,C]) | %19
 [G,CE]2 [G,CE] ([G,CE]2 [G,CE]) | [F,C]2 [F,C] CB,[F,A,] | [F,A,]2 [F,A,] [F,A,]3 | %22
 [B,,F,B,]2 [B,,F,B,] [B,,F,B,]2 [B,,F,B,] | [B,,F,B,]2 [B,,F,B,] ([B,,F,B,]2 [B,,F,B,]) :| %24
 [F,C]2 [F,C] (CB,)[F,A,] | [F,A,]2 [F,A,] [F,A,]2 [F,C] | [B,,B,]2 [B,,B,] [F,A,]2 [F,A,] | %27
 (B,,2- G, [B,,F,]2) z |] %28
V:4
 x6 | x6 | x6 | x6 | x6 | x6 | x6 | B,2 B, x3 | x6 | x6 | x6 | x6 | x6 | x6 | x6 | x6 |: x6 | x6 | %18
 x6 | x6 | x3 F,2 x | x6 | x6 | x6 :| x3 F,2 x | x6 | x6 | B,3 x3 |] %28

